X: 1
T: Gwerz maro Pontcallec
C: trad. Breton
N: propos\'e par jean-marc Siche
Z: 2019 John Chambers <jc:trillian.mit.edu>
S: NEFFA 2019 French Jam handout p.12
M: 3/4
L: 1/4
K: Am
"^A"[|] E |\
"Am"A2B | "F"c2d | "G"B2c | "Am"A3 |\
"F"c2c | "G"B>AG | "Am"A3 | A2 :|\
|: A |\
"Am"c2d | "C"e2e |
"G"g2f | "C"e3 |\
"Am"e2e | e>fe | "G"ded | "F"c2A |\
"G"d2d | "Em"ded | "Am"A3 | A2 :|
